X: 25
T:Miss Lyall
% Nottingham Music Database
S:Lesley Dolman, via EF
M:4/4
L:1/4
K:D
A|:"D"DF Ad|"D"f/2f/2f/2e/2 d2|"D"DF Ad|"A7"c/2c/2c/2B/2 A2|"A7"A,C EA|
"A7"c/2c/2c/2B/2 A2|1"A7"A,C EA|"D"F/2F/2F/2E/2 D2:|2"A7"Ac/2B/2 A/2G/2F/2E/2| "D"D2D2 :|
|:"D"A2 BA|"D"F2 GF|"D7"D2 ED|"G"B,3^A,|"A7"A,C EA|"A7"c/2c/2c/2B/2 A2|
"A7"A,C EA|"D"F/2F/2F/2E/2 D2:|"A7"Ac/2B/2 A/2G/2F/2E/2|"D"DD :|


